projects/plugins/jetpack/images/products/product-jetpack-crm.svg

<svg fill="none" height="128" viewBox="0 0 128 128" width="128" xmlns="http://www.w3.org/2000/svg"><rect fill="#2c3338" height="103.619" rx="12.1905" width="103.619" x="12.1904" y="12.1905"/><path clip-rule="evenodd" d="m76.9684 59.8954c2.9905 0 5.4147-2.4242 5.4147-5.4147 0-2.9904-2.4242-5.4146-5.4147-5.4146-2.9904 0-5.4146 2.4242-5.4146 5.4146 0 2.9905 2.4242 5.4147 5.4146 5.4147zm0 4.2113c5.3163 0 9.6261-4.3097 9.6261-9.626s-4.3098-9.626-9.6261-9.626c-5.3162 0-9.626 4.3097-9.626 9.626s4.3098 9.626 9.626 9.626zm-9.446 23.102v-7.7008c0-5.416-4.3905-9.8065-9.8065-9.8065h-15.4016c-5.416 0-9.8065 4.3905-9.8065 9.8065v7.7008h4.2114v-7.7008c0-3.0901 2.505-5.5952 5.5951-5.5952h15.4016c3.0901 0 5.5951 2.5051 5.5951 5.5952v7.7008zm26.9537-7.7008v7.7008h-4.2114v-7.7008c0-3.0901-2.505-5.5952-5.5951-5.5952h-9.626v-4.2113h9.626c5.416 0 9.8065 4.3905 9.8065 9.8065zm-39.0461-25.0272c0 2.9905-2.4242 5.4147-5.4146 5.4147s-5.4146-2.4242-5.4146-5.4147c0-2.9904 2.4242-5.4146 5.4146-5.4146s5.4146 2.4242 5.4146 5.4146zm4.2114 0c0 5.3163-4.3097 9.626-9.626 9.626s-9.626-4.3097-9.626-9.626 4.3097-9.626 9.626-9.626 9.626 4.3097 9.626 9.626z" fill="#fff" fill-rule="evenodd"/></svg>

<svg width="128" height="128" viewBox="0 0 128 128" fill="none" xmlns="http://www.w3.org/2000/svg">
<rect x="12.1904" y="12.1905" width="103.619" height="103.619" rx="12.1905" fill="#2C3338"/>
<path fill-rule="evenodd" clip-rule="evenodd" d="M76.9684 59.8954C79.9589 59.8954 82.3831 57.4712 82.3831 54.4807C82.3831 51.4903 79.9589 49.0661 76.9684 49.0661C73.978 49.0661 71.5538 51.4903 71.5538 54.4807C71.5538 57.4712 73.978 59.8954 76.9684 59.8954ZM76.9684 64.1067C82.2847 64.1067 86.5945 59.797 86.5945 54.4807C86.5945 49.1644 82.2847 44.8547 76.9684 44.8547C71.6522 44.8547 67.3424 49.1644 67.3424 54.4807C67.3424 59.797 71.6522 64.1067 76.9684 64.1067ZM67.5224 87.2087V79.5079C67.5224 74.0919 63.1319 69.7014 57.7159 69.7014H42.3143C36.8983 69.7014 32.5078 74.0919 32.5078 79.5079V87.2087H36.7192V79.5079C36.7192 76.4178 39.2242 73.9127 42.3143 73.9127H57.7159C60.806 73.9127 63.311 76.4178 63.311 79.5079V87.2087H67.5224ZM94.4761 79.5079V87.2087H90.2647V79.5079C90.2647 76.4178 87.7597 73.9127 84.6696 73.9127H75.0436V69.7014H84.6696C90.0856 69.7014 94.4761 74.0919 94.4761 79.5079ZM55.43 54.4807C55.43 57.4712 53.0058 59.8954 50.0154 59.8954C47.025 59.8954 44.6008 57.4712 44.6008 54.4807C44.6008 51.4903 47.025 49.0661 50.0154 49.0661C53.0058 49.0661 55.43 51.4903 55.43 54.4807ZM59.6414 54.4807C59.6414 59.797 55.3317 64.1067 50.0154 64.1067C44.6991 64.1067 40.3894 59.797 40.3894 54.4807C40.3894 49.1644 44.6991 44.8547 50.0154 44.8547C55.3317 44.8547 59.6414 49.1644 59.6414 54.4807Z" fill="white"/>
</svg>
